X: 1
T: Johnny D's
S: John Williams
Z: Darin Kelly, darin.kelly@comcast.net
R: slip jig
M: 9/8
L: 1/8
Z: Contributed 20040212222650 by Darin Kelly darin.kelly@comcast.net
K: G
DGG GAG FGA|BAB GAB c3|DGG GAG FGA|BAB cAF G3||ded cAG FED|ded cAB c3|ded cAG FGA|BGd cAF G3||
